;FLAVOR:Marlin
;TIME:8064
;Filament used: 10.0463m
;Layer height: 0.2
;Generated with Cura_SteamEngine 3.1.0
M190 S60
M104 S200
M109 S200
M82 ; absolute extrusion mode
G21 ;metric values
G90 ;absolute positioning
M82 ;set extruder to absolute mode
M107 ;start with the fan off
G28 X0 Y0 ;move X/Y to min endstops
G28 Z0 ;move Z to min endstops
G1 Z15.0 F9000 ;move the platform down 15mm
G92 E0 ;zero the extruded length
G1 F200 E3 ;extrude 3mm of feed stock
G92 E0 ;zero the extruded length again
G1 F9000
;Put printing message on LCD screen
M117 Printing...
;LAYER_COUNT:40
;LAYER:0
M107
G0 F3000 X45.929 Y11.448 Z0.3
;TYPE:SKIRT
G1 F1800 X46.123 Y10.981 E0.02523
G1 X46.389 Y10.551 E0.05045
G1 X46.719 Y10.168 E0.07568
G1 X47.106 Y9.842 E0.10092
G1 X47.539 Y9.581 E0.12615
G1 X48.007 Y9.391 E0.15134
G1 X48.5 Y9.278 E0.17658
G1 X48.973 Y9.243 E0.20024
G1 X58.973 Y9.253 E0.69914
G1 X59.477 Y9.293 E0.72437
G1 X59.968 Y9.413 E0.74958
G1 X60.435 Y9.608 E0.77483
G1 X60.918 Y9.914 E0.80336
G1 X63.95 Y12.24 E0.99401
G1 X68.45 Y15.37 E1.26748
G1 X73.124 Y18.244 E1.54123
G1 X77.921 Y20.832 E1.81316
G1 X82.896 Y23.163 E2.08726
G1 X88.019 Y25.22 E2.36268
G1 X90.541 Y26.107 E2.49605
G1 X95.793 Y27.713 E2.77005
G1 X101.136 Y29.021 E3.04449
G1 X103.783 Y29.553 E3.17919
G1 X106.488 Y30.014 E3.31609
G1 X111.92 Y30.707 E3.58929
G1 X117.378 Y31.092 E3.86227
G1 X122.867 Y31.169 E4.13614
G1 X128.333 Y30.935 E4.40909
G1 X133.776 Y30.393 E4.68198
G1 X139.214 Y29.539 E4.95661
G1 X141.85 Y29.01 E5.09075
G1 X144.503 Y28.399 E5.22657
G1 X149.821 Y26.932 E5.50179
G1 X155.012 Y25.18 E5.77513
G1 X157.548 Y24.202 E5.91073
G1 X160.059 Y23.153 E6.0465
G1 X165.038 Y20.816 E6.3209
G1 X169.871 Y18.206 E6.59494
G1 X174.514 Y15.348 E6.86694
G1 X179.043 Y12.193 E7.14232
G1 X182.024 Y9.905 E7.3298
G1 X182.448 Y9.629 E7.35504
G1 X182.91 Y9.424 E7.38025
G1 X183.398 Y9.295 E7.40544
G1 X183.972 Y9.243 E7.43419
G1 X193.952 Y9.243 E7.93209
G1 X194.456 Y9.283 E7.95732
G1 X194.947 Y9.402 E7.98252
G1 X195.414 Y9.596 E8.00775
G1 X195.844 Y9.862 E8.03298
G1 X196.227 Y10.192 E8.0582
G1 X196.553 Y10.579 E8.08345
G1 X196.814 Y11.012 E8.10867
G1 X197.004 Y11.48 E8.13387
G1 X197.117 Y11.973 E8.1591
G1 X197.152 Y12.443 E8.18261
G1 X197.152 Y212.425 E18.15976
G1 X197.112 Y212.929 E18.18498
G1 X196.993 Y213.42 E18.21019
G1 X196.799 Y213.887 E18.23542
G1 X196.533 Y214.317 E18.26064
G1 X196.203 Y214.7 E18.28586
G1 X195.816 Y215.026 E18.31111
G1 X195.383 Y215.287 E18.33633
G1 X194.915 Y215.477 E18.36153
G1 X194.422 Y215.59 E18.38677
G1 X193.952 Y215.625 E18.41028
G1 X183.964 Y215.624 E18.90858
G1 X183.46 Y215.584 E18.93381
G1 X182.968 Y215.465 E18.95906
G1 X182.502 Y215.27 E18.98426
G1 X182.017 Y214.963 E19.0129
G1 X178.982 Y212.636 E19.2037
G1 X174.472 Y209.498 E19.47781
G1 X169.798 Y206.624 E19.75155
G1 X165.001 Y204.036 E20.02348
G1 X160.026 Y201.706 E20.29756
G1 X154.889 Y199.644 E20.57372
G1 X152.394 Y198.765 E20.7057
G1 X147.129 Y197.155 E20.98038
G1 X141.786 Y195.847 E21.25481
G1 X139.135 Y195.314 E21.38972
G1 X136.434 Y194.854 E21.52641
G1 X131.002 Y194.161 E21.79961
G1 X125.544 Y193.776 E22.07259
G1 X120.055 Y193.699 E22.34646
G1 X114.589 Y193.933 E22.61941
G1 X109.146 Y194.475 E22.89231
G1 X103.708 Y195.329 E23.16694
G1 X101.072 Y195.858 E23.30107
G1 X98.419 Y196.469 E23.43689
G1 X93.101 Y197.936 E23.71212
G1 X87.91 Y199.688 E23.98545
G1 X85.374 Y200.666 E24.12105
G1 X82.863 Y201.715 E24.25682
G1 X77.884 Y204.052 E24.53123
G1 X73.051 Y206.662 E24.80526
G1 X68.408 Y209.52 E25.07727
G1 X63.881 Y212.673 E25.3525
G1 X60.898 Y214.963 E25.54012
G1 X60.474 Y215.239 E25.56536
G1 X60.012 Y215.444 E25.59058
G1 X59.524 Y215.573 E25.61576
G1 X58.95 Y215.625 E25.64451
G1 X48.97 Y215.625 E26.14242
G1 X48.466 Y215.585 E26.16764
G1 X47.975 Y215.466 E26.19285
G1 X47.508 Y215.272 E26.21808
G1 X47.078 Y215.006 E26.2433
G1 X46.695 Y214.676 E26.26852
G1 X46.369 Y214.289 E26.29377
G1 X46.108 Y213.856 E26.31899
G1 X45.918 Y213.388 E26.34419
G1 X45.805 Y212.895 E26.36942
G1 X45.77 Y212.425 E26.39294
G1 X45.77 Y12.443 E36.37008
G1 X45.81 Y11.939 E36.3953
G1 X45.929 Y11.448 E36.42051
G1 F1500 E29.92051
G0 F3000 X48.296 Y13.048
G0 X49.575 Y13.048
G0 X52.02 Y18.48
G0 X54.029 Y19.186
G0 X53.999 Y19.091
;TYPE:WALL-INNER
G1 F1500 E36.42051
G1 F1800 X55.202 Y17.434 E36.52267
G1 X53.999 Y15.778 E36.62478
G1 X52.052 Y16.412 E36.72694
G1 X52.052 Y18.457 E36.82897
G1 X53.999 Y19.091 E36.93112
G0 F3000 X54.029 Y19.186
G0 X51.972 Y206.352
G0 X52.052 Y206.41
G1 F1800 X52.052 Y208.458 E37.0333
G1 X53.999 Y209.09 E37.13542
G1 X55.202 Y207.434 E37.23754
G1 X53.999 Y205.778 E37.33966
G1 X52.052 Y206.41 E37.44178
G0 F3000 X51.972 Y206.352
G0 X54.011 Y205.74
G0 X58.291 Y211.764
G0 X58.361 Y211.834
G1 F1800 X49.561 Y211.834 E37.88082
G1 X49.561 Y13.034 E47.79899
G1 X58.361 Y13.034 E48.23802
G1 X58.361 Y211.834 E58.1562
G0 F3000 X58.761 Y212.234
;TYPE:WALL-OUTER
G1 F1800 X49.161 Y212.234 E58.63514
G1 X49.161 Y12.634 E68.59323
G1 X58.761 Y12.634 E69.07217
G1 X58.761 Y212.234 E79.03026
G0 F3000 X58.561 Y212.234
G1 F1500 E72.53026
G0 F3000 X58.291 Y211.764
G0 X55.112 Y207.142
G0 X54.708 Y207.434
G1 F1500 E79.03026
G1 F1800 X53.846 Y206.248 E79.1034
G1 X52.452 Y206.701 E79.17653
G1 X52.452 Y208.167 E79.24967
G1 X53.846 Y208.62 E79.3228
G1 X54.708 Y207.434 E79.39594
G0 F3000 X54.591 Y207.273
G1 F1500 E72.89594
G0 F3000 X54.995 Y206.981
G0 X53.693 Y19.096
G0 X53.846 Y18.621
G1 F1500 E79.39594
G1 F1800 X54.708 Y17.434 E79.46913
G1 X53.846 Y16.248 E79.54228
G1 X52.452 Y16.702 E79.61542
G1 X52.452 Y18.167 E79.68851
G1 X53.846 Y18.621 E79.76165
G0 F3000 X53.963 Y18.46
G0 X54.366 Y18.754
G0 X54.148 Y19.549
;TYPE:SKIN
G1 F1800 X55.684 Y17.434 E79.89206
G1 X54.148 Y15.32 E80.02243
G1 X51.662 Y16.129 E80.15286
G1 X51.662 Y18.74 E80.28312
G1 X54.148 Y19.549 E80.41355
G0 F3000 X57.971 Y13.424
G1 F1800 X57.971 Y211.444 E90.29281
G1 X49.951 Y211.444 E90.69293
G1 X49.951 Y13.424 E100.57219
G1 X57.971 Y13.424 E100.9723
G0 F3000 X54.148 Y205.32
G1 F1800 X51.662 Y206.127 E101.1027
G1 X51.662 Y208.741 E101.23312
G1 X54.148 Y209.548 E101.36351
G1 X55.684 Y207.434 E101.49388
G1 X54.148 Y205.32 E101.62425
G0 F3000 X55.242 Y207.434
G0 X54.011 Y209.128
G0 X50.608 Y211.263
G1 F1800 X50.13 Y210.784 E101.65801
G0 F3000 X50.13 Y210.219
G1 F1800 X51.174 Y211.263 E101.73167
G1 X51.244 Y211.333
G0 F3000 X51.739 Y211.263
G1 F1800 X50.13 Y209.653 E101.84523
G1 X50.06 Y209.583
G0 F3000 X50.13 Y209.087
G1 F1800 X52.305 Y211.263 E101.99872
G1 X52.375 Y211.333
G0 F3000 X52.871 Y211.263
G1 F1800 X50.13 Y208.522 E102.19212
G1 X50.06 Y208.452
G0 F3000 X50.13 Y207.956
G1 F1800 X53.436 Y211.263 E102.42541
G1 X53.506 Y211.333
G0 F3000 X54.002 Y211.263
G1 F1800 X51.673 Y208.933 E102.58977
G1 X51.603 Y208.863
G0 F3000 X51.482 Y208.742
G1 F1800 X50.13 Y207.39 E102.68516
G1 X50.06 Y207.32
G0 F3000 X50.13 Y206.825
G1 F1800 X51.482 Y208.177 E102.78055
G1 X51.552 Y208.247
G0 F3000 X51.482 Y207.611
G1 F1800 X50.13 Y206.259 E102.87594
G1 X50.06 Y206.189
G0 F3000 X50.13 Y205.693
G1 F1800 X51.482 Y207.045 E102.97133
G1 X51.552 Y207.115
G0 F3000 X51.482 Y206.48
G1 F1800 X50.13 Y205.128 E103.06672
G1 X50.06 Y205.058
G0 F3000 X50.13 Y204.562
G1 F1800 X51.543 Y205.975 E103.16642
G1 X51.613 Y206.045
G0 F3000 X51.969 Y205.835
G1 F1800 X50.13 Y203.996 E103.29617
G1 X50.06 Y203.926
G0 F3000 X50.13 Y203.431
G1 F1800 X52.396 Y205.697 E103.45605
G1 X52.466 Y205.767
G0 F3000 X52.823 Y205.558
G1 F1800 X50.13 Y202.865 E103.64605
G1 X50.06 Y202.795
G0 F3000 X50.13 Y202.299
G1 F1800 X53.25 Y205.42 E103.86622
G1 X53.32 Y205.49
G0 F3000 X53.677 Y205.281
G1 F1800 X50.13 Y201.734 E104.11648
G1 X50.06 Y201.664
G0 F3000 X50.13 Y201.168
G1 F1800 X54.104 Y205.142 E104.39687
G1 X54.174 Y205.212
G0 F3000 X54.606 Y205.644
G1 F1800 X57.791 Y208.829 E104.62159
G1 X57.861 Y208.899
G0 F3000 X57.791 Y209.394
G1 F1800 X55.873 Y207.477 E104.75688
G1 X55.803 Y207.407
G0 F3000 X55.635 Y207.804
G1 F1800 X57.791 Y209.96 E104.90899
G1 X57.861 Y210.03
G0 F3000 X57.791 Y210.526
G1 F1800 X55.397 Y208.132 E105.0779
G1 X55.327 Y208.062
G0 F3000 X55.159 Y208.46
G1 F1800 X57.791 Y211.091 E105.26357
G1 X57.861 Y211.161
G0 F3000 X57.396 Y211.263
G1 F1800 X54.921 Y208.788 E105.43819
G1 X54.851 Y208.718
G0 F3000 X54.683 Y209.115
G1 F1800 X56.83 Y211.263 E105.58971
G1 X56.9 Y211.333
G0 F3000 X56.265 Y211.263
G1 F1800 X54.445 Y209.442 E105.71816
G1 X54.375 Y209.372
G0 F3000 X54.187 Y209.75
G1 F1800 X55.699 Y211.263 E105.82487
G1 X55.769 Y211.333
G0 F3000 X55.133 Y211.263
G1 F1800 X53.349 Y209.478 E105.95078
G1 X53.279 Y209.408
G0 F3000 X52.511 Y209.206
G1 F1800 X54.568 Y211.263 E106.09591
G1 X54.638 Y211.333
G0 F3000 X57.791 Y208.263
G1 F1800 X50.13 Y200.602 E106.63644
G1 X50.06 Y200.532
G0 F3000 X50.13 Y200.036
G1 F1800 X57.791 Y207.697 E107.17696
G1 X57.861 Y207.767
G0 F3000 X57.791 Y207.132
G1 F1800 X50.13 Y199.471 E107.71749
G1 X50.06 Y199.401
G0 F3000 X50.13 Y198.905
G1 F1800 X57.791 Y206.566 E108.25801
G1 X57.861 Y206.636
G0 F3000 X57.791 Y206
G1 F1800 X50.13 Y198.339 E108.79854
G1 X50.06 Y198.269
G0 F3000 X50.13 Y197.774
G1 F1800 X57.791 Y205.435 E109.33906
G1 X57.861 Y205.505
G0 F3000 X57.791 Y204.869
G1 F1800 X50.13 Y197.208 E109.87959
G1 X50.06 Y197.138
G0 F3000 X50.13 Y196.642
G1 F1800 X57.791 Y204.303 E110.42011
G1 X57.861 Y204.373
G0 F3000 X57.791 Y203.737
G1 F1800 X50.13 Y196.077 E110.9606
G1 X50.06 Y196.007
G0 F3000 X50.13 Y195.511
G1 F1800 X57.791 Y203.172 E111.50112
G1 X57.861 Y203.242
G0 F3000 X57.791 Y202.606
G1 F1800 X50.13 Y194.945 E112.04165
G1 X50.06 Y194.875
G0 F3000 X50.13 Y194.38
G1 F1800 X57.791 Y202.04 E112.58214
G1 X57.861 Y202.11
G0 F3000 X57.791 Y201.475
G1 F1800 X50.13 Y193.814 E113.12266
G1 X50.06 Y193.744
G0 F3000 X50.13 Y193.248
G1 F1800 X57.791 Y200.909 E113.66319
G1 X57.861 Y200.979
G0 F3000 X57.791 Y200.343
G1 F1800 X50.13 Y192.683 E114.20368
G1 X50.06 Y192.613
G0 F3000 X50.13 Y192.117
G1 F1800 X57.791 Y199.778 E114.7442
G1 X57.861 Y199.848
G0 F3000 X57.791 Y199.212
G1 F1800 X50.13 Y191.551 E115.28473
G1 X50.06 Y191.481
G0 F3000 X50.13 Y190.986
G1 F1800 X57.791 Y198.646 E115.82522
G1 X57.861 Y198.716
G0 F3000 X57.791 Y198.081
G1 F1800 X50.13 Y190.42 E116.36574
G1 X50.06 Y190.35
G0 F3000 X50.13 Y189.854
G1 F1800 X57.791 Y197.515 E116.90627
G1 X57.861 Y197.585
G0 F3000 X57.791 Y196.949
G1 F1800 X50.13 Y189.288 E117.44679
G1 X50.06 Y189.218
G0 F3000 X50.13 Y188.723
G1 F1800 X57.791 Y196.384 E117.98732
G1 X57.861 Y196.454
G0 F3000 X57.791 Y195.818
G1 F1800 X50.13 Y188.157 E118.52784
G1 X50.06 Y188.087
G0 F3000 X50.13 Y187.591
G1 F1800 X57.791 Y195.252 E119.06837
G1 X57.861 Y195.322
G0 F3000 X57.791 Y194.687
G1 F1800 X50.13 Y187.026 E119.60889
G1 X50.06 Y186.956
G0 F3000 X50.13 Y186.46
G1 F1800 X57.791 Y194.121 E120.14942
G1 X57.861 Y194.191
G0 F3000 X57.791 Y193.555
G1 F1800 X50.13 Y185.894 E120.68994
G1 X50.06 Y185.824
G0 F3000 X50.13 Y185.329
G1 F1800 X57.791 Y192.989 E121.23043
G1 X57.861 Y193.059
G0 F3000 X57.791 Y192.424
G1 F1800 X50.13 Y184.763 E121.77096
G1 X50.06 Y184.693
G0 F3000 X50.13 Y184.197
G1 F1800 X57.791 Y191.858 E122.31148
G1 X57.861 Y191.928
G0 F3000 X57.791 Y191.292
G1 F1800 X50.13 Y183.632 E122.85197
G1 X50.06 Y183.562
G0 F3000 X50.13 Y183.066
G1 F1800 X57.791 Y190.727 E123.3925
G1 X57.861 Y190.797
G0 F3000 X57.791 Y190.161
G1 F1800 X50.13 Y182.5 E123.93302
G1 X50.06 Y182.43
G0 F3000 X50.13 Y181.935
G1 F1800 X57.791 Y189.595 E124.47351
G1 X57.861 Y189.665
G0 F3000 X57.791 Y189.03
G1 F1800 X50.13 Y181.369 E125.01404
G1 X50.06 Y181.299
G0 F3000 X50.13 Y180.803
G1 F1800 X57.791 Y188.464 E125.55456
G1 X57.861 Y188.534
G0 F3000 X57.791 Y187.898
G1 F1800 X50.13 Y180.237 E126.09509
G1 X50.06 Y180.167
G0 F3000 X50.13 Y179.672
G1 F1800 X57.791 Y187.333 E126.63561
G1 X57.861 Y187.403
G0 F3000 X57.791 Y186.767
G1 F1800 X50.13 Y179.106 E127.17614
G1 X50.06 Y179.036
G0 F3000 X50.13 Y178.54
G1 F1800 X57.791 Y186.201 E127.71666
G1 X57.861 Y186.271
G0 F3000 X57.791 Y185.636
G1 F1800 X50.13 Y177.975 E128.25719
G1 X50.06 Y177.905
G0 F3000 X50.13 Y177.409
G1 F1800 X57.791 Y185.07 E128.79771
G1 X57.861 Y185.14
G0 F3000 X57.791 Y184.504
G1 F1800 X50.13 Y176.843 E129.33824
G1 X50.06 Y176.773
G0 F3000 X50.13 Y176.278
G1 F1800 X57.791 Y183.938 E129.87873
G1 X57.861 Y184.008
G0 F3000 X57.791 Y183.373
G1 F1800 X50.13 Y175.712 E130.41925
G1 X50.06 Y175.642
G0 F3000 X50.13 Y175.146
G1 F1800 X57.791 Y182.807 E130.95978
G1 X57.861 Y182.877
G0 F3000 X57.791 Y182.241
G1 F1800 X50.13 Y174.581 E131.50026
G1 X50.06 Y174.511
G0 F3000 X50.13 Y174.015
G1 F1800 X57.791 Y181.676 E132.04079
G1 X57.861 Y181.746
G0 F3000 X57.791 Y181.11
G1 F1800 X50.13 Y173.449 E132.58131
G1 X50.06 Y173.379
G0 F3000 X50.13 Y172.884
G1 F1800 X57.791 Y180.544 E133.1218
G1 X57.861 Y180.614
G0 F3000 X57.791 Y179.979
G1 F1800 X50.13 Y172.318 E133.66233
G1 X50.06 Y172.248
G0 F3000 X50.13 Y171.752
G1 F1800 X57.791 Y179.413 E134.20285
G1 X57.861 Y179.483
G0 F3000 X57.791 Y178.847
G1 F1800 X50.13 Y171.187 E134.74334
G1 X50.06 Y171.117
G0 F3000 X50.13 Y170.621
G1 F1800 X57.791 Y178.282 E135.28387
G1 X57.861 Y178.352
G0 F3000 X57.791 Y177.716
G1 F1800 X50.13 Y170.055 E135.82439
G1 X50.06 Y169.985
G0 F3000 X50.13 Y169.489
G1 F1800 X57.791 Y177.15 E136.36492
G1 X57.861 Y177.22
G0 F3000 X57.791 Y176.585
G1 F1800 X50.13 Y168.924 E136.90544
G1 X50.06 Y168.854
G0 F3000 X50.13 Y168.358
G1 F1800 X57.791 Y176.019 E137.44597
G1 X57.861 Y176.089
G0 F3000 X57.791 Y175.453
G1 F1800 X50.13 Y167.792 E137.98649
G1 X50.06 Y167.722
G0 F3000 X50.13 Y167.227
G1 F1800 X57.791 Y174.888 E138.52702
G1 X57.861 Y174.958
G0 F3000 X57.791 Y174.322
G1 F1800 X50.13 Y166.661 E139.06754
G1 X50.06 Y166.591
G0 F3000 X50.13 Y166.095
G1 F1800 X57.791 Y173.756 E139.60807
G1 X57.861 Y173.826
G0 F3000 X57.791 Y173.19
G1 F1800 X50.13 Y165.53 E140.14856
G1 X50.06 Y165.46
G0 F3000 X50.13 Y164.964
G1 F1800 X57.791 Y172.625 E140.68908
G1 X57.861 Y172.695
G0 F3000 X57.791 Y172.059
G1 F1800 X50.13 Y164.398 E141.22961
G1 X50.06 Y164.328
G0 F3000 X50.13 Y163.833
G1 F1800 X57.791 Y171.493 E141.7701
G1 X57.861 Y171.563
G0 F3000 X57.791 Y170.928
G1 F1800 X50.13 Y163.267 E142.31062
G1 X50.06 Y163.197
G0 F3000 X50.13 Y162.701
G1 F1800 X57.791 Y170.362 E142.85115
G1 X57.861 Y170.432
G0 F3000 X57.791 Y169.796
G1 F1800 X50.13 Y162.136 E143.39164
G1 X50.06 Y162.066
G0 F3000 X50.13 Y161.57
G1 F1800 X57.791 Y169.231 E143.93216
G1 X57.861 Y169.301
G0 F3000 X57.791 Y168.665
G1 F1800 X50.13 Y161.004 E144.47269
G1 X50.06 Y160.934
G0 F3000 X50.13 Y160.438
G1 F1800 X57.791 Y168.099 E145.01321
G1 X57.861 Y168.169
G0 F3000 X57.791 Y167.534
G1 F1800 X50.13 Y159.873 E145.55374
G1 X50.06 Y159.803
G0 F3000 X50.13 Y159.307
G1 F1800 X57.791 Y166.968 E146.09426
G1 X57.861 Y167.038
G0 F3000 X57.791 Y166.402
G1 F1800 X50.13 Y158.741 E146.63479
G1 X50.06 Y158.671
G0 F3000 X50.13 Y158.176
G1 F1800 X57.791 Y165.837 E147.17531
G1 X57.861 Y165.907
G0 F3000 X57.791 Y165.271
G1 F1800 X50.13 Y157.61 E147.71584
G1 X50.06 Y157.54
G0 F3000 X50.13 Y157.044
G1 F1800 X57.791 Y164.705 E148.25636
G1 X57.861 Y164.775
G0 F3000 X57.791 Y164.139
G1 F1800 X50.13 Y156.479 E148.79685
G1 X50.06 Y156.409
G0 F3000 X50.13 Y155.913
G1 F1800 X57.791 Y163.574 E149.33738
G1 X57.861 Y163.644
G0 F3000 X57.791 Y163.008
G1 F1800 X50.13 Y155.347 E149.8779
G1 X50.06 Y155.277
G0 F3000 X50.13 Y154.782
G1 F1800 X57.791 Y162.442 E150.41839
G1 X57.861 Y162.512
G0 F3000 X57.791 Y161.877
G1 F1800 X50.13 Y154.216 E150.95892
G1 X50.06 Y154.146
G0 F3000 X50.13 Y153.65
G1 F1800 X57.791 Y161.311 E151.49944
G1 X57.861 Y161.381
G0 F3000 X57.791 Y160.745
G1 F1800 X50.13 Y153.085 E152.03993
G1 X50.06 Y153.015
G0 F3000 X50.13 Y152.519
G1 F1800 X57.791 Y160.18 E152.58045
G1 X57.861 Y160.25
G0 F3000 X57.791 Y159.614
G1 F1800 X50.13 Y151.953 E153.12098
G1 X50.06 Y151.883
G0 F3000 X50.13 Y151.388
G1 F1800 X57.791 Y159.048 E153.66147
G1 X57.861 Y159.118
G0 F3000 X57.791 Y158.483
G1 F1800 X50.13 Y150.822 E154.20199
G1 X50.06 Y150.752
G0 F3000 X50.13 Y150.256
G1 F1800 X57.791 Y157.917 E154.74252
G1 X57.861 Y157.987
G0 F3000 X57.791 Y157.351
G1 F1800 X50.13 Y149.69 E155.28304
G1 X50.06 Y149.62
G0 F3000 X50.13 Y149.125
G1 F1800 X57.791 Y156.786 E155.82357
